Adwaita++-Dark/mimetypes/16/application-x-krita.svg

<svg height="16" viewBox="0 0 16 16" width="16" xmlns="http://www.w3.org/2000/svg">
  <path d="m15.101133-.000514c-.240017 0-.475236.084006-.675251.250418l-6.225267 5.173988c-.075205.050405-.131209.106409-.200015.175213l-4.0003 3.20024 3.20024 3.200241 3.20024-4.000301 5.350802-6.425281c.331224-.39683.331224-.993675 0-1.3249-.17599-.164811-.409383-.254379-.650449-.249618zm-6.300473 6.40048.80006.80006-2.40018 2.80021-1.20009-1.20009zm0 .324824-.024802.050404c.012002-.009601.012002-.037603.024802-.050404zm-5.60042 2.875416-2.725004 1.424907c-.26562.13441-.475236.334424-.475236.600045 0 .26562.009601.653648.075206 1.050479l2.725004-1.72573-2.675401 2.00015c.13121.597645.478436 1.244094 1.075281 1.776133.331225.330425.66885.549642 1.000075.749657l1.224892-1.000075-.774458 1.20009c.66565.331224 1.324899.324824 1.724929.324824.26562 0 .500038-.190415.600045-.40003l1.424907-2.80021z" fill="#e6ddff"/>
</svg>

<svg xmlns="http://www.w3.org/2000/svg" style="isolation:isolate" width="16" height="16" viewBox="0 0 16 16">
 <defs>
  <style id="current-color-scheme" type="text/css">
   .ColorScheme-Text { color:#E6DDFF; } .ColorScheme-Highlight { color:#5294e2; }
  </style>
  <linearGradient id="arrongin" x1="0%" x2="0%" y1="0%" y2="100%">
   <stop offset="0%" style="stop-color:#dd9b44"/>
   <stop offset="100%" style="stop-color:#ad6c16"/>
  </linearGradient>
  <linearGradient id="aurora" x1="0%" x2="0%" y1="0%" y2="100%">
   <stop offset="0%" style="stop-color:#09D4DF"/>
   <stop offset="100%" style="stop-color:#9269F4"/>
  </linearGradient>
  <linearGradient id="fitdance" x1="0%" x2="0%" y1="0%" y2="100%">
   <stop offset="0%" style="stop-color:#1AD6AB"/>
   <stop offset="100%" style="stop-color:#329DB6"/>
  </linearGradient>
  <linearGradient id="oomox" x1="0%" x2="0%" y1="0%" y2="100%">
   <stop offset="0%" style="stop-color:#efefe7"/>
   <stop offset="100%" style="stop-color:#8f8f8b"/>
  </linearGradient>
  <linearGradient id="rainblue" x1="0%" x2="0%" y1="0%" y2="100%">
   <stop offset="0%" style="stop-color:#00F260"/>
   <stop offset="100%" style="stop-color:#0575E6"/>
  </linearGradient>
  <linearGradient id="sunrise" x1="0%" x2="0%" y1="0%" y2="100%">
   <stop offset="0%" style="stop-color:#FF8501"/>
   <stop offset="100%" style="stop-color:#FFCB01"/>
  </linearGradient>
  <linearGradient id="telinkrin" x1="0%" x2="0%" y1="0%" y2="100%">
   <stop offset="0%" style="stop-color:#b2ced6"/>
   <stop offset="100%" style="stop-color:#6da5b7"/>
  </linearGradient>
  <linearGradient id="60spsycho" x1="0%" x2="0%" y1="0%" y2="100%">
   <stop offset="0%" style="stop-color:#df5940"/>
   <stop offset="25%" style="stop-color:#d8d15f"/>
   <stop offset="50%" style="stop-color:#e9882a"/>
   <stop offset="100%" style="stop-color:#279362"/>
  </linearGradient>
  <linearGradient id="90ssummer" x1="0%" x2="0%" y1="0%" y2="100%">
   <stop offset="0%" style="stop-color:#f618c7"/>
   <stop offset="20%" style="stop-color:#94ffab"/>
   <stop offset="50%" style="stop-color:#fbfd54"/>
   <stop offset="100%" style="stop-color:#0f83ae"/>
  </linearGradient>
  <linearGradient id="cyberneon" x1="0%" x2="0%" y1="0%" y2="100%">
   <stop offset="0" style="stop-color:#0abdc6"/>
   <stop offset="1" style="stop-color:#ea00d9"/>
  </linearGradient>
 </defs>
 <path style="fill:currentColor" class="ColorScheme-Text" d="M 15.101133 -0.000514 C 14.861116 -0.000514 14.625897 0.083492 14.425882 0.249904 L 8.200615 5.423892 C 8.12541 5.474297 8.069406 5.530301 8.0006 5.599105 L 4.0003 8.799345 L 7.20054 11.999586 L 10.40078 7.999285 L 15.751582 1.574004 C 16.082806 1.177174 16.082806 0.580329 15.751582 0.249104 C 15.575592 0.084293 15.342199 -0.005275 15.101133 -0.000514 Z M 8.80066 6.399966 L 9.60072 7.200026 L 7.20054 10.000236 L 6.00045 8.800146 L 8.80066 6.399966 Z M 8.80066 6.72479 L 8.775858 6.775194 C 8.78786 6.765593 8.78786 6.737591 8.80066 6.72479 Z M 3.20024 9.600206 L 0.475236 11.025113 C 0.209616 11.159523 0 11.359537 0 11.625158 C 0 11.890778 0.009601 12.278806 0.075206 12.675637 L 2.80021 10.949907 L 0.124809 12.950057 C 0.256019 13.547702 0.603245 14.194151 1.20009 14.72619 C 1.531315 15.056615 1.86894 15.275832 2.200165 15.475847 L 3.425057 14.475772 L 2.650599 15.675862 C 3.316249 16.007086 3.975498 16.000686 4.375528 16.000686 C 4.641148 16.000686 4.875566 15.810271 4.975573 15.600656 L 6.40048 12.800446 L 3.20024 9.600206 Z"/>
</svg>
